X:42402
T:Bonaparte's Retreat 42402
N:tune id: 2372; setting id: 42402
Z:jmeme
S:thesession.org
R:march
M:4/4
K:Dmajor
(3DCB,|:A,DDC DFED|CEAB c2 cd|edce dcAB|cAGE FD (3EDB,|
A,DDC DFED|CEAB c2 cd|edcA GECD|EDDC D2 z2:|
cBcd cBcA|dcde dcAB|cded cAGE|~D2 (3EDC DCB,A,|
cBcd cBcA|dcde d2 cd|edfd edcA|(3dcd (3edc ddcd|
edfd edcA|(3dcd (3edc dcAB|cded cAGE|~D2 (3EDC DCB,^A,|
A,DDC DFED|CEAB c2 cd|edce dcAB|cAGE FD (3EDB,|
A,DDC DFED|CEAB c2 cd|edcA GECD|EDDC D2 z2||


